icons/mobile/24/svg/share-ios-24.svg

<svg width="24" height="24" viewBox="0 0 24 24" fill="none" xmlns="http://www.w3.org/2000/svg">
<path d="M17 8.3042C17.4349 8.35219 17.8728 8.37996 18.3057 8.44092C19.8417 8.65692 21.001 9.99051 21.001 11.5415V18.4624C21.0008 20.0113 19.8559 21.3402 18.3359 21.5542C16.243 21.8502 14.111 22.0005 12.001 22.0005C9.90208 22.0005 7.78121 21.8521 5.69531 21.5591C4.15942 21.3431 3.00114 20.0103 3.00098 18.4595V11.5386C3.00098 9.98958 4.14602 8.6598 5.66602 8.4458C6.10899 8.38281 6.55601 8.35418 7.00098 8.30518V10.063C6.63803 10.105 6.2711 10.1272 5.91016 10.1782C5.24916 10.2712 4.75098 10.8556 4.75098 11.5376V18.4585C4.75115 19.1413 5.26157 19.7287 5.93945 19.8247C9.95729 20.3876 14.076 20.3868 18.0908 19.8198C18.7517 19.7268 19.2499 19.1433 19.25 18.4614V11.5405C19.25 10.8575 18.7395 10.2693 18.0615 10.1733C17.7097 10.1244 17.3529 10.103 17 10.062V8.3042Z" fill="black"/>
<path d="M10.6855 2.5376C11.4085 1.8226 12.5904 1.8216 13.3174 2.5376L16.2393 5.41358C16.5838 5.75257 16.5888 6.30702 16.25 6.64991C16.078 6.82491 15.853 6.9126 15.626 6.9126C15.404 6.9126 15.1817 6.82765 15.0117 6.66065L12.875 4.55811V14.1255C12.8748 14.6086 12.4831 15.0005 12 15.0005C11.5169 15.0005 11.1252 14.6086 11.125 14.1255V4.56006L8.98828 6.6626C8.64428 7.00052 8.09095 6.99685 7.75098 6.65088C7.41221 6.30699 7.4171 5.75355 7.76172 5.41455L10.6855 2.5376Z" fill="black"/>
</svg>

<!-- This Source Code Form is subject to the terms of the Mozilla Public
   - License, v. 2.0. If a copy of the MPL was not distributed with this
   - file, You can obtain one at http://mozilla.org/MPL/2.0/. -->
<svg xmlns="http://www.w3.org/2000/svg" width="24" height="24" fill="none" viewBox="0 0 24 24">
    <path fill="#000" d="M17 8.304c.435.048.873.076 1.306.137A3.146 3.146 0 0 1 21 11.54v6.921c0 1.55-1.145 2.878-2.665 3.092A45 45 0 0 1 12 22c-2.099 0-4.22-.149-6.306-.442A3.145 3.145 0 0 1 3 18.458v-6.92c0-1.55 1.145-2.88 2.665-3.093.443-.063.89-.092 1.335-.14v1.757c-.363.042-.73.064-1.09.115a1.37 1.37 0 0 0-1.16 1.36v6.92c0 .683.51 1.27 1.188 1.367 4.018.563 8.137.562 12.152-.005a1.37 1.37 0 0 0 1.159-1.359v-6.92c0-.684-.51-1.272-1.189-1.368-.351-.049-.708-.07-1.061-.111z" />
    <path fill="#000" d="M10.686 2.538a1.88 1.88 0 0 1 2.631 0l2.922 2.876a.874.874 0 1 1-1.227 1.247l-2.137-2.103v9.567a.875.875 0 0 1-1.75 0V4.56L8.988 6.663a.874.874 0 0 1-1.226-1.248z" />
</svg>
